gtk/icons/scalable/actions/view-more-symbolic.svg

<svg width='16' height='16'
     xmlns:gpa='https://www.gtk.org/grappa'
     gpa:version='1'
     gpa:keywords='view kebab more inline menu'
     gpa:state='0'>
  <path d='M 9 14 C 9 14.5522852, 8.55228519 15, 8 15 C 7.44771528 15, 7 14.5522852, 7 14 C 7 13.4477148, 7.44771528 13, 8 13 C 8.55228519 13, 9 13.4477148, 9 14 M 9 8 C 9 8.55228519, 8.55228519 9, 8 9 C 7.44771528 9, 7 8.55228519, 7 8 C 7 7.44771528, 7.44771528 7, 8 7 C 8.55228519 7, 9 7.44771528, 9 8 M 9 2 C 9 2.55228472, 8.55228519 3, 8 3 C 7.44771528 3, 7 2.55228472, 7 2 C 7 1.44771528, 7.44771528 1, 8 1 C 8.55228519 1, 9 1.44771528, 9 2'
        id='path0'
        stroke-width='2'
        stroke-linecap='round'
        stroke-linejoin='round'
        stroke='rgb(0,0,0)'
        fill='none'
        class='foreground-stroke transparent-fill'/>
</svg>

<svg xmlns="http://www.w3.org/2000/svg" width="16" height="16" viewBox="0 0 16 16"><path fill="none" d="M9 14a1 1 0 0 1-1 1 1 1 0 0 1-1-1 1 1 0 0 1 1-1 1 1 0 0 1 1 1m0-6a1 1 0 0 1-1 1 1 1 0 0 1-1-1 1 1 0 0 1 1-1 1 1 0 0 1 1 1m0-6a1 1 0 0 1-1 1 1 1 0 0 1-1-1 1 1 0 0 1 1-1 1 1 0 0 1 1 1" class="foreground-stroke transparent-fill" style="fill-opacity:0;stroke:#241f31;stroke-width:2;stroke-linecap:round;stroke-linejoin:round;paint-order:stroke markers fill"/></svg>
